icons/woman_fill.svg

<svg width="48" height="48" viewBox="0 0 48 48" fill="none" xmlns="http://www.w3.org/2000/svg">
<path fill-rule="evenodd" clip-rule="evenodd" d="M28.5 8.5C28.5 10.9853 26.4853 13 24 13C21.5148 13 19.5 10.9853 19.5 8.5C19.5 6.01472 21.5148 4 24 4C26.4853 4 28.5 6.01472 28.5 8.5ZM18.5 21C18.5 23.5306 16.1642 32.0452 15.309 35.0778C15.146 35.6558 15.5244 36.2471 16.1183 36.3364C22.1054 37.2369 25.899 37.2073 31.8856 36.3305C32.4782 36.2438 32.8601 35.6592 32.7021 35.0815C31.8565 31.9898 29.5025 23.1876 29.5 21.0034L29.5 21L29.5 19.4948C29.8976 19.9955 30.2688 20.7401 30.4968 21.5452L30.5188 21.6225C30.6579 22.1136 30.7102 22.2982 30.7594 22.4837C30.789 22.5955 30.8175 22.7075 30.8632 22.887C30.9918 23.3925 31.2565 24.4331 32.0659 27.509C32.347 28.5772 33.4408 29.2153 34.509 28.9341C35.5772 28.653 36.2153 27.5592 35.9342 26.491C35.1642 23.5651 34.8904 22.4916 34.7497 21.94L34.7497 21.9399L34.7497 21.9399C34.6054 21.3744 34.6011 21.3576 34.3454 20.4548C34.0007 19.2383 33.4136 17.986 32.6211 16.993C31.8733 16.0559 30.648 15 29 15H24C24 15 24 15 24 15C24 15 24 15 24 15H19C17.352 15 16.1268 16.0559 15.3789 16.993C14.5864 17.986 13.9993 19.2383 13.6547 20.4548C13.3989 21.3576 13.3946 21.3744 13.2504 21.9399C13.1097 22.4915 12.8359 23.5649 12.0659 26.491C11.7847 27.5592 12.4228 28.653 13.491 28.9341C14.5592 29.2153 15.653 28.5772 15.9342 27.509C16.7436 24.4331 17.0083 23.3925 17.1369 22.887C17.1825 22.7075 17.211 22.5954 17.2407 22.4837C17.2898 22.2983 17.3422 22.1136 17.4813 21.6226L17.4813 21.6224L17.4814 21.6222L17.5032 21.5452C17.7313 20.7401 18.1024 19.9954 18.5 19.4948L18.5 21ZM18.5 42.3877V38.5704C19.9095 38.7792 21.2135 38.9111 22.4875 38.9679L21.4472 42.7824C21.2495 43.5074 20.5458 43.9742 19.8009 43.8745C19.0561 43.7747 18.5 43.1392 18.5 42.3877ZM26.5529 42.7824L25.5108 38.9616C26.7854 38.8998 28.09 38.7642 29.5 38.5566V42.3877C29.5 43.1392 28.944 43.7747 28.1991 43.8745C27.4543 43.9742 26.7506 43.5074 26.5529 42.7824Z" fill="black"/>
</svg>

<svg
  xmlns="http://www.w3.org/2000/svg"
  width="24"
  height="24"
  viewBox="0 0 24 24"
  fill="none"
  stroke="currentColor"
  stroke-width="2"
  stroke-linecap="round"
  stroke-linejoin="round"
>
  <path
    fill-rule="evenodd"
    d="M28.5 8.5a4.5 4.5 0 1 1-9 0 4.5 4.5 0 0 1 9 0M18.5 21c0 2.53-2.336 11.045-3.191 14.078a.997.997 0 0 0 .81 1.258c5.986.9 9.78.871 15.767-.005a.996.996 0 0 0 .816-1.25c-.845-3.091-3.2-11.893-3.202-14.078v-1.508c.398.5.769 1.245.997 2.05l.022.077c.139.492.191.676.24.862.03.111.058.223.104.403.129.505.393 1.546 1.203 4.622a2 2 0 1 0 3.868-1.018c-.77-2.926-1.044-4-1.184-4.551a41 41 0 0 0-.405-1.485c-.344-1.217-.931-2.469-1.724-3.462C31.873 16.056 30.648 15 29 15H19c-1.648 0-2.873 1.056-3.621 1.993-.793.993-1.38 2.245-1.724 3.462-.256.903-.26.92-.405 1.485-.14.551-.414 1.625-1.184 4.551a2 2 0 1 0 3.868 1.018c.81-3.076 1.074-4.117 1.203-4.622.046-.18.074-.292.104-.403.049-.186.101-.37.24-.861l.022-.078c.228-.805.6-1.55.997-2.05zm0 21.388V38.57c1.41.21 2.714.341 3.988.398l-1.04 3.814a1.5 1.5 0 0 1-2.948-.394m8.053.394-1.042-3.82a41 41 0 0 0 3.989-.405v3.83a1.5 1.5 0 0 1-2.947.395"
    clip-rule="evenodd"
  />
</svg>
